X:3380
T:Convenience, The
R:reel
E:7
S:Tom Creegan
I:speed 350
M:C|
K:D
A|:dABA dABA|GAFA EADA|dABA dABA|FAEA D3A::\
df~f2 df~f2|ecec gece|df~f2df~f2|ecec d3A:|*
fg|~a3f gfed|Ae~e2Ae~e2|a3f gfed|Adce d2fg|\
aA~A2~A2~A2|gA~A2 gAgA|~f3f gfed|Addc d2:|**


